X: 27
T:Whiskey Before Breakfast
M:4/4
L:1/8
Q:1/4=160
C:American Traditional
S:Fiddle Players Tunebook 2
R:barndance
K:D
"D"DB, |\
"D"A,B, D E D2DE |"D"F2BF AB A F |"G"G2BG "D"F2AF |"A"ED E F "Bm"ED B, D
 |\
"D"A,B, D E D2DE |"D"F2BF AB A F |"G"G2BG "D"FG A F |"A"ED E F "D"D2:: d
B |\
"D"A2AB d2cd |"D"e2fe d2df |"A"e2ef e2ef |"A"gf e d cA B c |"D"d2fd "A"c
2ec |\
"G"BA B c "D"dB A F |"G"G2BG "D"F2AF |"A"ED E F "D"D2:|
